images/Agenda.svg

<svg width="48" height="48" viewBox="0 0 48 48" fill="none" xmlns="http://www.w3.org/2000/svg">
<g clip-path="url(#clip0_1414_945)">
<path d="M45.2379 9.60281L26.6153 8.08716L2.76367 9.60281V46.8254C2.76367 47.4742 3.28952 48 3.93827 48H44.0631C44.7119 48 45.2379 47.474 45.2379 46.8251L45.2379 9.60281Z" fill="#F6F9F9"/>
<path d="M45.2379 9.60292L41.3747 7.67139V37.1133C41.3747 42.0591 37.3653 46.0685 32.4195 46.0685H2.76367V46.8255C2.76367 47.4743 3.28952 48.0001 3.93827 48.0001H44.063C44.7118 48.0001 45.2379 47.4741 45.2379 46.8252V9.60292Z" fill="#E7ECF1"/>
<path d="M44.0631 2.73999H3.93845C3.28961 2.73999 2.76367 3.26593 2.76367 3.91477V9.60287H45.2379V3.91477C45.2379 3.26593 44.7119 2.73999 44.0631 2.73999V2.73999Z" fill="#61A2F9"/>
<path d="M44.0635 2.73999H41.375V9.60287H45.2382V3.91477C45.2382 3.26593 44.7122 2.73999 44.0635 2.73999V2.73999Z" fill="#5490F9"/>
<path d="M8.76797 6.46556H8.10797C7.46156 6.46556 6.9375 5.9415 6.9375 5.29509V1.17047C6.9375 0.524062 7.46156 0 8.10797 0H8.76797C9.41438 0 9.93844 0.524062 9.93844 1.17047V5.295C9.93844 5.9415 9.41447 6.46556 8.76797 6.46556Z" fill="#DAE4EA"/>
<path d="M16.5492 6.46556H15.8892C15.2428 6.46556 14.7188 5.9415 14.7188 5.29509V1.17047C14.7188 0.524062 15.2428 0 15.8892 0H16.5492C17.1956 0 17.7197 0.524062 17.7197 1.17047V5.295C17.7197 5.9415 17.1957 6.46556 16.5492 6.46556Z" fill="#DAE4EA"/>
<path d="M24.3305 6.46556H23.6705C23.0241 6.46556 22.5 5.9415 22.5 5.29509V1.17047C22.5 0.524062 23.0241 0 23.6705 0H24.3305C24.9769 0 25.5009 0.524062 25.5009 1.17047V5.295C25.5009 5.9415 24.9769 6.46556 24.3305 6.46556V6.46556Z" fill="#DAE4EA"/>
<path d="M32.1117 6.46556H31.4517C30.8053 6.46556 30.2812 5.9415 30.2812 5.29509V1.17047C30.2812 0.524062 30.8052 0 31.4517 0H32.1117C32.7581 0 33.2822 0.524062 33.2822 1.17047V5.295C33.2822 5.9415 32.7581 6.46556 32.1117 6.46556Z" fill="#DAE4EA"/>
<path d="M39.8949 6.46556H39.2349C38.5885 6.46556 38.0645 5.9415 38.0645 5.29509V1.17047C38.0645 0.524062 38.5884 0 39.2349 0H39.8949C40.5413 0 41.0654 0.524062 41.0654 1.17047V5.295C41.0654 5.9415 40.5413 6.46556 39.8949 6.46556Z" fill="#DAE4EA"/>
<path d="M15.7793 18.9244V17.2256C15.7793 17.0161 15.9492 16.8462 16.1587 16.8462H37.6164C37.8259 16.8462 37.9958 17.0161 37.9958 17.2256V18.9244C37.9958 19.134 37.8259 19.3038 37.6164 19.3038H16.1587C15.9492 19.3038 15.7793 19.134 15.7793 18.9244V18.9244Z" fill="#DAE4EA"/>
<path d="M15.7793 23.8397V22.1409C15.7793 21.9314 15.9492 21.7615 16.1587 21.7615H37.6164C37.8259 21.7615 37.9958 21.9314 37.9958 22.1409V23.8397C37.9958 24.0493 37.8259 24.2191 37.6164 24.2191H16.1587C15.9492 24.2192 15.7793 24.0493 15.7793 23.8397V23.8397Z" fill="#DAE4EA"/>
<path d="M15.7793 28.7553V27.0564C15.7793 26.8469 15.9492 26.677 16.1587 26.677H37.6164C37.8259 26.677 37.9958 26.8469 37.9958 27.0564V28.7553C37.9958 28.9648 37.8259 29.1347 37.6164 29.1347H16.1587C15.9492 29.1347 15.7793 28.9648 15.7793 28.7553V28.7553Z" fill="#DAE4EA"/>
<path d="M15.7793 33.6705V31.9717C15.7793 31.7622 15.9492 31.5923 16.1587 31.5923H37.6164C37.8259 31.5923 37.9958 31.7622 37.9958 31.9717V33.6705C37.9958 33.8801 37.8259 34.0499 37.6164 34.0499H16.1587C15.9492 34.05 15.7793 33.8802 15.7793 33.6705V33.6705Z" fill="#DAE4EA"/>
<path d="M15.7793 38.5858V36.887C15.7793 36.6774 15.9492 36.5076 16.1587 36.5076H37.6164C37.8259 36.5076 37.9958 36.6774 37.9958 36.887V38.5858C37.9958 38.7954 37.8259 38.9652 37.6164 38.9652H16.1587C15.9492 38.9652 15.7793 38.7954 15.7793 38.5858V38.5858Z" fill="#DAE4EA"/>
<path d="M10.0078 18.9244V17.2256C10.0078 17.0161 10.1777 16.8462 10.3872 16.8462H12.5018C12.7113 16.8462 12.8812 17.0161 12.8812 17.2256V18.9244C12.8812 19.134 12.7113 19.3038 12.5018 19.3038H10.3872C10.1777 19.3038 10.0078 19.134 10.0078 18.9244V18.9244Z" fill="#DAE4EA"/>
<path d="M10.0078 23.8397V22.1409C10.0078 21.9314 10.1777 21.7615 10.3872 21.7615H12.5018C12.7113 21.7615 12.8812 21.9314 12.8812 22.1409V23.8397C12.8812 24.0493 12.7113 24.2191 12.5018 24.2191H10.3872C10.1777 24.2192 10.0078 24.0493 10.0078 23.8397V23.8397Z" fill="#DAE4EA"/>
<path d="M10.0078 28.7553V27.0564C10.0078 26.8469 10.1777 26.677 10.3872 26.677H12.5018C12.7113 26.677 12.8812 26.8469 12.8812 27.0564V28.7553C12.8812 28.9648 12.7113 29.1347 12.5018 29.1347H10.3872C10.1777 29.1347 10.0078 28.9648 10.0078 28.7553V28.7553Z" fill="#DAE4EA"/>
<path d="M10.0078 33.6705V31.9717C10.0078 31.7622 10.1777 31.5923 10.3872 31.5923H12.5018C12.7113 31.5923 12.8812 31.7622 12.8812 31.9717V33.6705C12.8812 33.8801 12.7113 34.0499 12.5018 34.0499H10.3872C10.1777 34.05 10.0078 33.8802 10.0078 33.6705V33.6705Z" fill="#DAE4EA"/>
<path d="M10.0078 38.5858V36.887C10.0078 36.6774 10.1777 36.5076 10.3872 36.5076H12.5018C12.7113 36.5076 12.8812 36.6774 12.8812 36.887V38.5858C12.8812 38.7954 12.7113 38.9652 12.5018 38.9652H10.3872C10.1777 38.9652 10.0078 38.7954 10.0078 38.5858V38.5858Z" fill="#DAE4EA"/>
</g>
<defs>
<clipPath id="clip0_1414_945">
<rect width="48" height="48" fill="white"/>
</clipPath>
</defs>
</svg>

<svg xmlns="http://www.w3.org/2000/svg" width="48" height="48" fill="none"><g clip-path="url(#a)"><path fill="#F6F9F9" d="M45.238 9.603 26.615 8.087 2.764 9.603v37.222c0 .65.526 1.175 1.174 1.175h40.125c.649 0 1.175-.526 1.175-1.175z"/><path fill="#E7ECF1" d="M45.238 9.603 41.375 7.67v29.442a8.955 8.955 0 0 1-8.955 8.956H2.764v.756c0 .65.526 1.175 1.174 1.175h40.125c.649 0 1.175-.526 1.175-1.175z"/><path fill="#61A2F9" d="M44.063 2.74H3.938c-.648 0-1.174.526-1.174 1.175v5.688h42.474V3.915c0-.65-.526-1.175-1.175-1.175"/><path fill="#5490F9" d="M44.064 2.74h-2.689v6.863h3.863V3.915c0-.65-.526-1.175-1.175-1.175"/><path fill="#DAE4EA" d="M8.768 6.466h-.66a1.17 1.17 0 0 1-1.17-1.17V1.17c0-.646.524-1.17 1.17-1.17h.66c.646 0 1.17.524 1.17 1.17v4.125a1.17 1.17 0 0 1-1.17 1.17M16.55 6.466h-.66a1.17 1.17 0 0 1-1.171-1.17V1.17c0-.646.524-1.17 1.17-1.17h.66c.647 0 1.17.524 1.17 1.17v4.125a1.17 1.17 0 0 1-1.17 1.17M24.33 6.466h-.66a1.17 1.17 0 0 1-1.17-1.17V1.17c0-.646.524-1.17 1.17-1.17h.66c.647 0 1.17.524 1.17 1.17v4.125a1.17 1.17 0 0 1-1.17 1.17M32.112 6.466h-.66a1.17 1.17 0 0 1-1.17-1.17V1.17c0-.646.523-1.17 1.17-1.17h.66c.646 0 1.17.524 1.17 1.17v4.125a1.17 1.17 0 0 1-1.17 1.17M39.895 6.466h-.66a1.17 1.17 0 0 1-1.17-1.17V1.17c0-.646.523-1.17 1.17-1.17h.66c.646 0 1.17.524 1.17 1.17v4.125a1.17 1.17 0 0 1-1.17 1.17M15.78 18.924v-1.698c0-.21.17-.38.379-.38h21.457c.21 0 .38.17.38.38v1.698c0 .21-.17.38-.38.38H16.16a.38.38 0 0 1-.38-.38M15.78 23.84v-1.7c0-.209.17-.378.379-.378h21.457c.21 0 .38.17.38.379v1.699c0 .21-.17.38-.38.38H16.16a.38.38 0 0 1-.38-.38M15.78 28.755v-1.699c0-.21.17-.379.379-.379h21.457c.21 0 .38.17.38.38v1.698c0 .21-.17.38-.38.38H16.16a.38.38 0 0 1-.38-.38M15.78 33.67v-1.698c0-.21.17-.38.379-.38h21.457c.21 0 .38.17.38.38v1.698c0 .21-.17.38-.38.38H16.16a.38.38 0 0 1-.38-.38M15.78 38.586v-1.699c0-.21.17-.38.379-.38h21.457c.21 0 .38.17.38.38v1.699c0 .21-.17.38-.38.38H16.16a.38.38 0 0 1-.38-.38M10.008 18.924v-1.698c0-.21.17-.38.38-.38h2.114c.21 0 .38.17.38.38v1.698c0 .21-.17.38-.38.38h-2.115a.38.38 0 0 1-.38-.38M10.008 23.84v-1.7c0-.209.17-.378.38-.378h2.114c.21 0 .38.17.38.379v1.699c0 .21-.17.38-.38.38h-2.115a.38.38 0 0 1-.38-.38M10.008 28.755v-1.699c0-.21.17-.379.38-.379h2.114c.21 0 .38.17.38.38v1.698c0 .21-.17.38-.38.38h-2.115a.38.38 0 0 1-.38-.38M10.008 33.67v-1.698c0-.21.17-.38.38-.38h2.114c.21 0 .38.17.38.38v1.698c0 .21-.17.38-.38.38h-2.115a.38.38 0 0 1-.38-.38M10.008 38.586v-1.699c0-.21.17-.38.38-.38h2.114c.21 0 .38.17.38.38v1.699c0 .21-.17.38-.38.38h-2.115a.38.38 0 0 1-.38-.38"/></g><defs><clipPath id="a"><path fill="#fff" d="M0 0h48v48H0z"/></clipPath></defs></svg>
